X:1
T:Title
%%score ( 1 2 ) { ( 3 5 ) | ( 4 6 ) }
L:1/8
Q:1/4=110
M:4/4
K:Eb
V:1 treble nm="Grand Piano, Unnamed-000"
V:2 treble 
V:3 bass nm="Choir Pad, Sicilian Mariners"
V:5 bass 
V:4 bass 
V:6 bass 
V:1
 [EB]2 [Ec]2 BAGA | [EB]2 [Ec]2 BA [EG]2 | [GB]2 [FB]2 [Fc]2 [Fd][Ee] | [Fd]2 c-[Ec] [DB]4 | %4
w: By~Sicilian~melody,~1794 * * * * *||||
 [EB]2 [Ec]2 BAGA | [EB]2 [Ec]2 BA [EG]2 | [GB]2 [FB]2 [Fc]2 [Fd][Ee] | [Fd]2 c-[Ec] [DB]4 | %8
w: ||||
 [DF][EG][DF][EG] [EA]2 [DA]2 | [EG][FA]GA [EB]2 [DB]2 | edcB ec[EB][FA] | [EG]2 [DF]2 [B,E]4- | %12
w: ||||
 [B,E]4 z4 |] %13
w: |
V:2
 z4 E2 E2 | z4 E2 z2 | x8 | z2 .F2 z4 | z4 E2 E2 | z4 E2 z2 | x8 | z2 .F2 z4 | x8 | z2 E2 z4 | %10
 E2 E2 E2 z2 | x8 | x8 |] %13
V:3
 G,2 A,2 G,F,E,F, | G,2 A,2 G,F, E,2 | B,2 B,2 =A,2 B,2 | B,2 =A,2 B,4 | G,2 A,2 G,F,E,F, | %5
 G,2 A,2 G,F, E,2 | B,2 B,2 =A,2 B,2 | B,2 =A,2 B,4 | B,2 z G, C2 B,2 | B,2 B,2 E2 A,2 | %10
 CB,A,G, CA,B,C | B,2 A,2 G,4- | G,4 z4 |] %13
V:4
 E,2 E,2 E,2 z2 | E,2 A,,2 E,2 z2 | E,2 D,2 F,2 B,,G, | F,2 F,,2 B,,4 | E,2 E,2 E,2 z2 | %5
 E,2 A,,2 E,2 z2 | E,2 D,2 F,2 B,,G, | F,2 F,,2 B,,4 | z2 .A,2 F,2 B,,2 | E,2 E,F, G,2 F,2 | %10
 E,2 E,2 E,2 G,A, | B,,2 B,,2 E,4- | E,4 z4 |] %13
V:5
 x8 | x8 | x8 | x8 | x8 | x8 | x8 | x8 | z2 B,2 z4 | x8 | x8 | x8 | x8 |] %13
V:6
 x8 | x8 | x8 | x8 | x8 | x8 | x8 | x8 | B,,4 z4 | x8 | x8 | x8 | x8 |] %13

